src/components/00-materials/images-raw/Contract.svg

<svg width="96" height="96" viewBox="0 0 96 96" fill="none" xmlns="http://www.w3.org/2000/svg">
<path d="M69.49 24.4699V78.3499C69.4874 79.2747 69.1188 80.1609 68.4649 80.8148C67.811 81.4687 66.9248 81.8373 66 81.8399H30C29.0752 81.8373 28.1891 81.4687 27.5351 80.8148C26.8812 80.1609 26.5126 79.2747 26.51 78.3499V17.6499C26.5126 16.7251 26.8812 15.839 27.5351 15.185C28.1891 14.5311 29.0752 14.1626 30 14.1599H59" stroke="#00008F" stroke-width="2" stroke-linecap="round" stroke-linejoin="round"/>
<path d="M30.78 52.8899H65.22M53.88 72.4299L56.71 76.0799C56.8083 76.2036 56.9301 76.3067 57.0683 76.3833C57.2065 76.4598 57.3585 76.5083 57.5156 76.526C57.6726 76.5436 57.8316 76.5301 57.9833 76.4861C58.1351 76.4422 58.2767 76.3687 58.4 76.2699C58.4706 76.2143 58.5344 76.1505 58.59 76.0799L64.19 69.0799L53.88 72.4299ZM69.49 24.4699H60.89C60.6458 24.4739 60.4031 24.4297 60.1759 24.3399C59.9487 24.2501 59.7415 24.1164 59.566 23.9464C59.3904 23.7765 59.2501 23.5736 59.153 23.3495C59.0559 23.1253 59.0039 22.8842 59 22.6399V14.1599L69.49 24.4699ZM31.5 23.0699H46.12H31.5ZM50.6 29.3599H65.22H50.6ZM30.78 43.5899H65.22H30.78ZM30.78 47.9999H65.22H30.78Z" stroke="#00008F" stroke-width="2" stroke-linecap="round" stroke-linejoin="round"/>
</svg>

<svg width="96" height="96" viewBox="0 0 96 96" fill="none" xmlns="http://www.w3.org/2000/svg"><path d="M69.49 24.47v53.88A3.5 3.5 0 0166 81.84H30a3.5 3.5 0 01-3.49-3.49v-60.7A3.5 3.5 0 0130 14.16h29" stroke="#00008F" stroke-width="2" stroke-linecap="round" stroke-linejoin="round"/><path d="M30.78 52.89h34.44M53.88 72.43l2.83 3.65a1.202 1.202 0 001.88 0l5.6-7-10.31 3.35zm15.61-47.96h-8.6A1.86 1.86 0 0159 22.64v-8.48l10.49 10.31zm-37.99-1.4h14.62H31.5zm19.1 6.29h14.62H50.6zM30.78 43.59h34.44-34.44zm0 4.41h34.44-34.44z" stroke="#00008F" stroke-width="2" stroke-linecap="round" stroke-linejoin="round"/></svg>
